src/assets/svg/additional/1-share.svg

<svg width="37" height="37" viewBox="0 0 37 37" fill="none" xmlns="http://www.w3.org/2000/svg">
<path d="M28.0198 33.9167C26.8122 33.9167 25.778 33.4863 24.9172 32.6255C24.0564 31.7648 23.626 30.7306 23.626 29.5229C23.626 29.3431 23.6453 29.1311 23.6839 28.887C23.7224 28.6429 23.7802 28.4181 23.8573 28.2125L12.1792 21.4292C11.7938 21.866 11.3184 22.2193 10.7531 22.4891C10.1878 22.7589 9.60972 22.8938 9.01875 22.8938C7.81111 22.8938 6.77691 22.4634 5.91615 21.6026C5.05538 20.7418 4.625 19.7076 4.625 18.5C4.625 17.2667 5.05538 16.226 5.91615 15.3781C6.77691 14.5302 7.81111 14.1063 9.01875 14.1063C9.60972 14.1063 10.175 14.2219 10.7146 14.4531C11.2542 14.6844 11.7424 15.0184 12.1792 15.4552L23.8573 8.74896C23.7802 8.5691 23.7224 8.36354 23.6839 8.13229C23.6453 7.90104 23.626 7.68264 23.626 7.47709C23.626 6.24375 24.0564 5.20313 24.9172 4.35521C25.778 3.50729 26.8122 3.08334 28.0198 3.08334C29.2531 3.08334 30.2938 3.50729 31.1417 4.35521C31.9896 5.20313 32.4135 6.24375 32.4135 7.47709C32.4135 8.68472 31.9896 9.71893 31.1417 10.5797C30.2938 11.4405 29.2531 11.8708 28.0198 11.8708C27.4288 11.8708 26.8571 11.7745 26.3047 11.5818C25.7523 11.3891 25.2833 11.0743 24.8979 10.6375L13.2198 17.1125C13.2712 17.3181 13.3161 17.5557 13.3547 17.8255C13.3932 18.0953 13.4125 18.3201 13.4125 18.5C13.4125 18.6799 13.3932 18.8726 13.3547 19.0781C13.3161 19.2837 13.2712 19.4892 13.2198 19.6948L24.8979 26.324C25.2833 25.9642 25.733 25.6752 26.2469 25.4568C26.7608 25.2384 27.3517 25.1292 28.0198 25.1292C29.2531 25.1292 30.2938 25.5531 31.1417 26.401C31.9896 27.249 32.4135 28.2896 32.4135 29.5229C32.4135 30.7306 31.9896 31.7648 31.1417 32.6255C30.2938 33.4863 29.2531 33.9167 28.0198 33.9167ZM28.0198 9.55834C28.6108 9.55834 29.1054 9.3592 29.5036 8.96094C29.9019 8.56268 30.101 8.06806 30.101 7.47709C30.101 6.88611 29.9019 6.3915 29.5036 5.99323C29.1054 5.59497 28.6108 5.39584 28.0198 5.39584C27.4288 5.39584 26.9342 5.59497 26.5359 5.99323C26.1377 6.3915 25.9385 6.88611 25.9385 7.47709C25.9385 8.06806 26.1377 8.56268 26.5359 8.96094C26.9342 9.3592 27.4288 9.55834 28.0198 9.55834V9.55834ZM9.01875 20.5813C9.60972 20.5813 10.1043 20.3821 10.5026 19.9839C10.9009 19.5856 11.1 19.091 11.1 18.5C11.1 17.909 10.9009 17.4144 10.5026 17.0161C10.1043 16.6179 9.60972 16.4188 9.01875 16.4188C8.42778 16.4188 7.93316 16.6179 7.5349 17.0161C7.13663 17.4144 6.9375 17.909 6.9375 18.5C6.9375 19.091 7.13663 19.5856 7.5349 19.9839C7.93316 20.3821 8.42778 20.5813 9.01875 20.5813V20.5813ZM28.0198 31.6042C28.6108 31.6042 29.1054 31.405 29.5036 31.0068C29.9019 30.6085 30.101 30.1139 30.101 29.5229C30.101 28.9319 29.9019 28.4373 29.5036 28.0391C29.1054 27.6408 28.6108 27.4417 28.0198 27.4417C27.4288 27.4417 26.9342 27.6408 26.5359 28.0391C26.1377 28.4373 25.9385 28.9319 25.9385 29.5229C25.9385 30.1139 26.1377 30.6085 26.5359 31.0068C26.9342 31.405 27.4288 31.6042 28.0198 31.6042Z" fill="#E9E8E8"/>
</svg>

<svg xmlns="http://www.w3.org/2000/svg" width="37" height="37" fill="none"><path fill="#E9E8E8" d="M28.02 33.917c-1.208 0-2.242-.43-3.103-1.291-.86-.861-1.291-1.895-1.291-3.103 0-.18.02-.392.058-.636.038-.244.096-.469.173-.675L12.18 21.43c-.385.437-.86.79-1.426 1.06a3.986 3.986 0 0 1-1.734.405c-1.208 0-2.242-.43-3.103-1.291-.86-.861-1.291-1.895-1.291-3.103 0-1.233.43-2.274 1.291-3.122.86-.848 1.895-1.272 3.103-1.272.59 0 1.156.116 1.696.347.54.231 1.027.565 1.464 1.002L23.857 8.75a2.682 2.682 0 0 1-.173-.617 3.988 3.988 0 0 1-.058-.655c0-1.233.43-2.274 1.291-3.122.861-.848 1.895-1.272 3.103-1.272 1.233 0 2.274.424 3.122 1.272.848.848 1.271 1.889 1.271 3.122 0 1.208-.423 2.242-1.271 3.103-.848.86-1.889 1.29-3.122 1.29a5.17 5.17 0 0 1-1.715-.288 3.291 3.291 0 0 1-1.407-.945L13.22 17.113a7.137 7.137 0 0 1 .192 1.387c0 .18-.019.373-.057.578-.039.206-.084.411-.135.617l11.678 6.629c.385-.36.835-.649 1.349-.867.514-.219 1.105-.328 1.773-.328 1.233 0 2.274.424 3.122 1.272.848.848 1.271 1.889 1.271 3.122 0 1.208-.423 2.242-1.271 3.103-.848.86-1.889 1.29-3.122 1.29Zm0-24.359c.59 0 1.085-.199 1.484-.597.398-.398.597-.893.597-1.484 0-.59-.2-1.086-.597-1.484-.399-.398-.893-.597-1.484-.597s-1.086.199-1.484.597c-.398.398-.598.893-.598 1.484s.2 1.086.598 1.484c.398.398.893.597 1.484.597ZM9.019 20.581c.59 0 1.085-.199 1.484-.597.398-.398.597-.893.597-1.484s-.2-1.086-.597-1.484c-.399-.398-.893-.597-1.484-.597s-1.086.199-1.484.597c-.398.398-.598.893-.598 1.484s.2 1.086.598 1.484c.398.398.893.597 1.484.597Zm19 11.023c.592 0 1.086-.199 1.485-.597.398-.399.597-.893.597-1.484s-.2-1.086-.597-1.484c-.399-.398-.893-.597-1.484-.597s-1.086.199-1.484.597c-.398.398-.598.893-.598 1.484 0 .59.2 1.085.598 1.484.398.398.893.597 1.484.597Z"/></svg>
